!!!OTL: FRAU DU SOLLST ZU HAUSE KOMMN
!!!ARE: Europa, Mitteleuropa, Deutschland
!!!SCT: Z0159
!!!YEM: Copyright 1995, estate of Helmut Schaffrath.
**kern
*ICvox
*Ivox
*M3/4
*k[f#]
*G:
=1
{8d
8g
4g
4g
=2
8f#
8a
4a
8.r}
{16d
=3
4a
4g
4a
=4
4b
2r}
=5
{8d
8a
4a
4r
=6
8g
8dd
4dd}
{8dd
8cc
=7
8b
8a
8g
8f#
8e
8e
=8
4e
4r}
{8d
8d
=9
4d
8e
8f#
8g
8a
=10
4g
4r}
{8dd
8cc
=11
8b
8a
8g
8f#
8e
8e
=12
4e
4r}
{8d
8d
=13
4d
8e
8f#
8g
8a
=14
4g
2r}
==
!!!AGN: Erzaehlung, lustige Romanze
!!!ONB: ESAC (Essen Associative Code) Database: ZUCCAL
!!!AMT: simple triple
!!!AIN: vox
!!!EED: Helmut Schaffrath
!!!EEV: 1.0
*-
